X: 62
T:Marcha del Corpus de Pontevedra
M:3/4
L:1/8
Q:170
C:Trad.
R:Marcha
A:Pontevedra
K:C
c2 GECG| c2 GECE | GF {G}FDB,D | AG {A}GE C2| c2 GECG| c2 GECE | GF {G}F
DB,D | C"F."G
 C4 :||: F2 {G}FEFG | E2 {F}ECEG | D2 {E}DB,DA | GFED C2|  F2 {G}FEFG |
E2 {F}ECEG | D2
 {E}DB,DG | C"F."G C4 :||

